X:278
T: Gua hongdeng
N: C1775
O: China,Shandong Xintai
S: III, 355]
R: Xiaodiao, Yangge diao]
M: 2/4
L: 1/16
K: A
c2c2f2gf | e2c2B4 |
c2c2F2c2 | B2cBA4 |
F2e2c2c2 | B2B2B2G2 | F2F2E4 |
F2F2B2B2 | C2G2F4 | A2C2E4

@@@ Tune index: 6833
